X: 1
T: Henry McDermott Roe
M: 3/4
L: 1/8
R: waltz
K: Gmaj
D2|G2 GA BA|G2 E2 D2|GF GA Bc|d2 B2 G2|
ce dc BA|Bd gd BG|A2 AB cA|B2 G2 E2|
G2 GA BA|G2 E2 D2|GF GA Bc|d2 B2 G2|
ce dc BA|Bd g2 Ac|B2 G2 F2|G4:|
d2|g2 ga gf|e2 d2 dg|ed ef ga|b2 g2 e2|
g2 ga gf|e2 d2 dg|ed ef ga|g4 d2|
g2 ga gf|e2 d2 dg|ed ef gf|ed cB AG|
ce dc BA|Bd g2 Ac|B2 G2 F2|G4:|
